src/assets/duotone/PenTool.svg

<?xml version="1.0" encoding="UTF-8"?>
<svg width="24" height="24" viewBox="0 0 24 24" xmlns="http://www.w3.org/2000/svg">
 <path d="m11.15 5.1902-0.78-0.78003c-0.47002-0.47-0.47002-1.23 0-1.7l0.78-0.78003c0.47-0.47 1.23-0.47 1.7 0l0.78 0.78003c0.47 0.47 0.47 1.23 0 1.7l-0.78 0.78003c-0.47 0.47-1.23 0.47-1.7 0z"/>
 <path d="m12 5.9101c-0.4 0-0.81-0.14997-1.11-0.45997l-0.78-0.78003c-0.60996-0.61-0.60996-1.61 0-2.23l0.78-0.78002c0.59-0.6 1.63-0.59 2.23 0l0.78 0.78002c0.61 0.61 0.61 1.61 0 2.23l-0.78 0.78003c-0.31 0.31-0.72 0.45997-1.12 0.45997zm0-3.95c-0.21 0-0.42 0.07999-0.58 0.23999l-0.78 0.77997c-0.32 0.32-0.32 0.85005 0 1.17l0.78 0.77996c0.32 0.32 0.84 0.32 1.17 0l0.78-0.77996c0.32-0.32 0.32-0.84005 0-1.17l-0.78-0.77997c-0.17-0.16-0.38-0.23999-0.59-0.23999z"/>
 <path d="m19.45 9.8101h1.1c0.66 0 1.2 0.54004 1.2 1.2v1.0999c0 0.66-0.54 1.2001-1.2 1.2001h-1.1c-0.66 0-1.2-0.5401-1.2-1.2001v-1.0999c0-0.66 0.54-1.2 1.2-1.2z"/>
 <path d="m20.55 13.69h-1.1c-0.87 0-1.58-0.71-1.58-1.58v-1.1c0-0.87 0.71-1.58 1.58-1.58h1.1c0.87 0 1.58 0.71002 1.58 1.58v1.1c-0.01 0.87-0.71 1.58-1.58 1.58zm-1.1-3.5c-0.46 0-0.83 0.37-0.83 0.83v1.1c0 0.46 0.37 0.83 0.83 0.83h1.1c0.46 0 0.83-0.37 0.83-0.83v-1.1c0-0.46-0.37-0.83-0.83-0.83h-1.1z"/>
 <path d="m4.55 9.8101h-1.1c-0.66 0-1.2 0.54004-1.2 1.2v1.0999c0 0.66 0.54 1.2001 1.2 1.2001h1.1c0.66 0 1.2-0.5401 1.2-1.2001v-1.0999c0-0.66-0.54-1.2-1.2-1.2z"/>
 <path d="m4.5501 13.69h-1.1c-0.87 0-1.58-0.71-1.58-1.58v-1.1c0-0.87 0.70999-1.58 1.58-1.58h1.1c0.87 0 1.58 0.71002 1.58 1.58v1.1c-0.01 0.87-0.70999 1.58-1.58 1.58zm-1.1-3.5c-0.46 0-0.82999 0.37-0.82999 0.83v1.1c0 0.46 0.36999 0.83 0.82999 0.83h1.1c0.46 0 0.82999-0.37 0.82999-0.83v-1.1c0-0.46-0.36999-0.83-0.82999-0.83h-1.1z"/>
 <path d="m12.71 4.2695c0.2929-0.2929 0.7678-0.2929 1.0607-1e-5l5.3 5.3c0.2929 0.29289 0.2929 0.76774 0 1.0606s-0.7678 0.2929-1.0607 0l-5.3-5.3c-0.2929-0.2929-0.2929-0.76777 0-1.0607z" clip-rule="evenodd" fill-rule="evenodd"/>
 <path d="m11.29 4.2695c0.2929 0.29289 0.2929 0.76776 0 1.0607l-5.3 5.3c-0.29289 0.2929-0.76777 0.2929-1.0607 0s-0.29289-0.76775 0-1.0606l5.3-5.3c0.2929-0.29289 0.7678-0.29289 1.0607 1e-5z" clip-rule="evenodd" fill-rule="evenodd"/>
 <path d="m13.26 22.01h-2.56c-0.92 0-1.6-0.74-1.43-1.54l0.42-1.85h4.59l0.42 1.85c0.19 0.85-0.46 1.54-1.44 1.54z"/>
 <path d="m16.04 17.05-1.77 1.57h-4.59l-1.77-1.57c-1.03-0.84-1.03-1.49-0.25-2.48l3.12-3.94c0.22-0.27 0.47-0.46 0.74-0.55 0.29-0.10002 0.61-0.10002 0.9 0 0.27 0.1 0.52 0.28 0.74 0.55l3.12 3.94c0.79 0.99 0.75 1.61-0.24 2.48z" opacity=".4"/>
</svg>

<svg width="24" height="24" viewBox="0 0 24 24"  xmlns="http://www.w3.org/2000/svg">
<path d="M11.1501 5.19015L10.3701 4.41012C9.90008 3.94012 9.90008 3.18017 10.3701 2.71017L11.1501 1.93014C11.6201 1.46014 12.3801 1.46014 12.8501 1.93014L13.6301 2.71017C14.1001 3.18017 14.1001 3.94012 13.6301 4.41012L12.8501 5.19015C12.3801 5.66015 11.6201 5.66015 11.1501 5.19015Z" />
<path d="M11.9998 5.91013C11.5998 5.91013 11.1898 5.76016 10.8898 5.45016L10.1098 4.67013C9.49984 4.06013 9.49984 3.06015 10.1098 2.44015L10.8898 1.66013C11.4798 1.06013 12.5198 1.07013 13.1198 1.66013L13.8998 2.44015C14.5098 3.05015 14.5098 4.05013 13.8998 4.67013L13.1198 5.45016C12.8098 5.76016 12.3998 5.91013 11.9998 5.91013ZM11.9998 1.96017C11.7898 1.96017 11.5798 2.04016 11.4198 2.20016L10.6398 2.98013C10.3198 3.30013 10.3198 3.83018 10.6398 4.15018L11.4198 4.93014C11.7398 5.25014 12.2598 5.25014 12.5898 4.93014L13.3698 4.15018C13.6898 3.83018 13.6898 3.31013 13.3698 2.98013L12.5898 2.20016C12.4198 2.04016 12.2098 1.96017 11.9998 1.96017Z" />
<path d="M19.45 9.81006H20.55C21.21 9.81006 21.75 10.3501 21.75 11.0101V12.11C21.75 12.77 21.21 13.3101 20.55 13.3101H19.45C18.79 13.3101 18.25 12.77 18.25 12.11V11.0101C18.25 10.3501 18.79 9.81006 19.45 9.81006Z" />
<path d="M20.5501 13.6902H19.4501C18.5801 13.6902 17.8701 12.9802 17.8701 12.1102V11.0102C17.8701 10.1402 18.5801 9.43018 19.4501 9.43018H20.5501C21.4201 9.43018 22.1301 10.1402 22.1301 11.0102V12.1102C22.1201 12.9802 21.4201 13.6902 20.5501 13.6902ZM19.4501 10.1902C18.9901 10.1902 18.6201 10.5602 18.6201 11.0202V12.1202C18.6201 12.5802 18.9901 12.9502 19.4501 12.9502H20.5501C21.0101 12.9502 21.3801 12.5802 21.3801 12.1202V11.0202C21.3801 10.5602 21.0101 10.1902 20.5501 10.1902H19.4501Z" />
<path d="M4.55 9.81006H3.45C2.79 9.81006 2.25 10.3501 2.25 11.0101V12.11C2.25 12.77 2.79 13.3101 3.45 13.3101H4.55C5.21 13.3101 5.75 12.77 5.75 12.11V11.0101C5.75 10.3501 5.21 9.81006 4.55 9.81006Z" />
<path d="M4.55012 13.6902H3.45011C2.58011 13.6902 1.87012 12.9802 1.87012 12.1102V11.0102C1.87012 10.1402 2.58011 9.43018 3.45011 9.43018H4.55012C5.42012 9.43018 6.13011 10.1402 6.13011 11.0102V12.1102C6.12011 12.9802 5.42012 13.6902 4.55012 13.6902ZM3.45011 10.1902C2.99011 10.1902 2.62012 10.5602 2.62012 11.0202V12.1202C2.62012 12.5802 2.99011 12.9502 3.45011 12.9502H4.55012C5.01012 12.9502 5.38011 12.5802 5.38011 12.1202V11.0202C5.38011 10.5602 5.01012 10.1902 4.55012 10.1902H3.45011Z" />
<path fill-rule="evenodd" clip-rule="evenodd" d="M12.7099 4.26948C13.0028 3.97658 13.4777 3.97658 13.7706 4.26947L19.0706 9.56946C19.3635 9.86235 19.3635 10.3372 19.0706 10.6301C18.7777 10.923 18.3028 10.923 18.0099 10.6301L12.7099 5.33014C12.417 5.03724 12.417 4.56237 12.7099 4.26948Z" />
<path fill-rule="evenodd" clip-rule="evenodd" d="M11.2903 4.26948C11.5832 4.56237 11.5832 5.03724 11.2903 5.33014L5.99029 10.6301C5.6974 10.923 5.22252 10.923 4.92963 10.6301C4.63674 10.3372 4.63674 9.86235 4.92963 9.56946L10.2296 4.26947C10.5225 3.97658 10.9974 3.97658 11.2903 4.26948Z" />
<path d="M13.2598 22.0101H10.6998C9.7798 22.0101 9.0998 21.2701 9.2698 20.4701L9.6898 18.6201H14.2798L14.6998 20.4701C14.8898 21.3201 14.2398 22.0101 13.2598 22.0101Z" />
<path opacity="0.4" d="M16.04 17.0499L14.27 18.6199H9.68002L7.91002 17.0499C6.88002 16.2099 6.88002 15.5599 7.66002 14.5699L10.78 10.6299C11 10.3599 11.25 10.1699 11.52 10.0799C11.81 9.97988 12.13 9.97988 12.42 10.0799C12.69 10.1799 12.94 10.3599 13.16 10.6299L16.28 14.5699C17.07 15.5599 17.03 16.1799 16.04 17.0499Z" />
</svg>
